X:68
T:Miss Dunkanson's Jigg
C:R. Petrie
S:Petrie's Second Collection of Strathspey Reels and Country Dances &c.
Z:Steve Wyrick , 6/11/04
N:Petrie's Second Collection, page 24
L:1/8
M:6/8
R:Jig
K:D
f|e2A c2A|c/d/ed c2A| dBG     GBd|gdB G2f|e2A c2A|c/d/ed c2A|ece eca |ecA A2:|
B|ABA aeg|fdf    edc|(B/c/dB) G2B|gdB G2B|AcA aeg|fdf    edc|BcB a^ga|ecA A2B|
  AcA aeg|fdf    edc|(B/c/d)B G2B|gdB G2f|e2A c2A|c/d/ed c2A|ece a^ga|ecA A2|]
